X: 24307
T: Lost, The
R: jig
M: 6/8
K: Bminor
|:~f3 BAF|ABA FB/c/e|~f2B BAF|ecA Bce|
~f2B BAF|ABA FB/c/e|fba fed|1 ecA B3:|2 ecA B2c||
|:dcd def|fed BAF|dcd def|fed e3|
ded def|fed BAF|baf edB|1 BAF B3:|2 BAF Bce||

